X: 74
T: Danshui
%%abc-version 2.0
%%abcx-abcm2ps-target-version 5.9.1 (29 Sep 2008)
%%abc-creator hum2abc beta
%%abcx-conversion-date 2013/10/02 07:52:29
%%abc-edited-by Helmut Schaffrath
%%humdrum-veritas 3184165165
%%humdrum-veritas-data 4253708173
%%continueall 1
%%barnumbers 0
L: 1/8
M: 2/4
K: G
e dB2 [I:setbarnb 1]| 
e dB2 | 
e d e g | 
d2d B | 
d d B d | 
e d B A | 
G3A | 
G2G2 | 
B2B B | 
B G e e | 
B B E d | 
G2G A | 
d3B | 
B F A F | 
E3F | 
E4 |]  



